picto/lost-property-office-framed.svg

<svg class="color-immutable" width="30" height="30" viewBox="0 0 30 30" fill="none" xmlns="http://www.w3.org/2000/svg"><path d="M0 0H30V30H0V0Z" fill="#2D327D"/><path d="M25.5 3C26.325 3 27 3.675 27 4.5V25.5C27 26.325 26.325 27 25.5 27H4.5C3.675 27 3 26.325 3 25.5V4.5C3 3.675 3.675 3 4.5 3H25.5ZM25.5 2.625H4.5C3.46613 2.625 2.625 3.46613 2.625 4.5V25.5C2.625 26.5339 3.46613 27.375 4.5 27.375H25.5C26.5339 27.375 27.375 26.5339 27.375 25.5V4.5C27.375 3.46613 26.5339 2.625 25.5 2.625Z" fill="white"/><path d="M8.13743 14.1C7.97153 14.1 7.83795 14.2351 7.83795 14.4005C7.83795 14.8265 8.14853 15.1883 8.56943 15.2524L10.9913 15.6239C11.0985 15.6392 11.1766 15.7311 11.1766 15.8381C11.1766 15.9593 11.0789 16.0567 10.9593 16.0567H6.53918C6.24255 16.0567 6 16.2961 6 16.594C6 16.8917 6.24255 17.1338 6.53918 17.1338H9.39435C9.5907 17.1338 9.74962 17.2926 9.74962 17.4889C9.74962 17.6851 9.5907 17.8452 9.39435 17.8452H6.53918C6.24255 17.8452 6 18.0858 6 18.3838C6 18.6815 6.24255 18.9224 6.53918 18.9224H9.39435C9.5907 18.9224 9.74962 19.0823 9.74962 19.2785C9.74962 19.4747 9.5907 19.6334 9.39435 19.6334H6.53918C6.24255 19.6334 6 19.8756 6 20.1734C6 20.471 6.24255 20.7119 6.53918 20.7119H9.39435C9.5907 20.7119 9.74962 20.8721 9.74962 21.0669C9.74962 21.2645 9.5907 21.4231 9.39435 21.4231H6.53918C6.24255 21.4231 6 21.6652 6 21.9632C6 22.2596 6.24255 22.5002 6.53918 22.5002H18V20.1775C18 19.8671 17.7479 19.6167 17.4371 19.6167H16.6875C16.3766 19.6167 16.1246 19.3634 16.1246 19.0547C16.1246 18.7427 16.3767 18.4923 16.6875 18.4923H17.4371C17.7479 18.4923 18 18.239 18 17.93V15.606L8.1834 14.1044C8.16817 14.1013 8.15295 14.1 8.13743 14.1Z" fill="white"/><path d="M23.8272 16.8096L22.7826 15.7652C22.6767 15.6608 22.5346 15.6008 22.3843 15.6008H21.9304V11.3261H22.6852C23.4093 11.3261 23.9999 10.7386 23.9999 10.0145C23.9999 9.28906 23.4093 8.70001 22.6852 8.70001H22.1253C21.9163 8.70001 21.749 8.86846 21.749 9.07591C21.749 9.28209 21.9163 9.45054 22.1253 9.45054H22.6852C22.9972 9.45054 23.2479 9.70269 23.2479 10.0145C23.2479 10.325 22.9972 10.577 22.6852 10.577H19.4929V8.70286L7.40257 10.577H6V10.9529V11.3261H7.40257L19.4929 13.2017V11.3261H21.5543V15.6008H21.1001C20.9527 15.6008 20.8078 15.6608 20.7019 15.7651L19.6572 16.8108C19.5542 16.9151 19.4929 17.0601 19.4929 17.2076V23.4373C19.4929 23.7465 19.7463 23.9999 20.0554 23.9999H23.4289C23.7409 23.9999 23.9917 23.7465 23.9917 23.4373V17.2076C23.9917 17.0602 23.9331 16.9152 23.8272 16.8108V16.8096ZM22.1752 22.5H21.2429V21.5824H22.1752V22.5ZM23.0519 19.9459C22.9409 20.1037 22.7227 20.2966 22.3973 20.5245C22.298 20.5946 22.2273 20.6799 22.1854 20.7803C22.1435 20.8806 22.1206 21.0204 22.1168 21.1996H21.319C21.3248 20.9853 21.3321 20.8412 21.3409 20.7671C21.3497 20.693 21.3696 20.6132 21.4008 20.5274C21.4398 20.4261 21.4903 20.3404 21.5527 20.2703C21.6151 20.2001 21.7417 20.0881 21.9326 19.9342C22.0748 19.8212 22.1713 19.7228 22.222 19.639C22.2726 19.5552 22.2979 19.4549 22.2979 19.3379C22.2979 19.1938 22.2507 19.0778 22.1562 18.9902C22.0617 18.9025 21.9375 18.8587 21.7836 18.8587C21.3822 18.8587 21.1718 19.1042 21.1523 19.5951H20.2815C20.3009 19.2152 20.3925 18.9123 20.5562 18.6863C20.827 18.3122 21.2401 18.1252 21.7953 18.1252C22.2337 18.1252 22.5814 18.2431 22.8386 18.4788C23.0919 18.7087 23.2186 19 23.2186 19.3526C23.2185 19.5904 23.1629 19.7881 23.0519 19.9459Z" fill="white"/></svg>

<svg class="color-immutable" width="30" height="30" viewBox="0 0 30 30" fill="none" xmlns="http://www.w3.org/2000/svg"><g clip-path="url(#a)"><path d="M0 0h30v30H0V0Z" fill="#2D327D"/><path d="M25.5 3c.825 0 1.5.675 1.5 1.5v21c0 .825-.675 1.5-1.5 1.5h-21c-.825 0-1.5-.675-1.5-1.5v-21C3 3.675 3.675 3 4.5 3h21Zm0-.375h-21A1.877 1.877 0 0 0 2.625 4.5v21c0 1.034.841 1.875 1.875 1.875h21a1.877 1.877 0 0 0 1.875-1.875v-21A1.877 1.877 0 0 0 25.5 2.625Z" fill="#fff"/><path d="M8.137 14.1a.3.3 0 0 0-.3.3c.001.426.312.788.732.852l2.422.372a.218.218 0 0 1-.032.433H6.54a.538.538 0 1 0 0 1.077h2.855a.355.355 0 1 1 0 .711H6.54a.54.54 0 0 0 0 1.077h2.855a.356.356 0 0 1 0 .711H6.54a.54.54 0 0 0 0 1.078h2.855a.356.356 0 0 1 0 .712H6.54a.539.539 0 1 0 0 1.077H18v-2.323c0-.31-.252-.56-.563-.56h-.75a.562.562 0 1 1 0-1.124h.75c.31 0 .563-.254.563-.563v-2.324l-9.817-1.502a.229.229 0 0 0-.046-.004Z" fill="#fff"/><path d="m23.827 16.81-1.044-1.045a.567.567 0 0 0-.399-.164h-.454v-4.275h.755c.724 0 1.315-.587 1.315-1.312 0-.725-.59-1.314-1.315-1.314h-.56a.375.375 0 1 0 0 .75h.56a.562.562 0 1 1 0 1.127h-3.192V8.703l-12.09 1.874H6v.749h1.403l12.09 1.876v-1.876h2.061v4.275H21.1a.572.572 0 0 0-.398.164l-1.045 1.046a.571.571 0 0 0-.164.397v6.23c0 .309.253.562.562.562h3.374a.563.563 0 0 0 .563-.563v-6.23a.56.56 0 0 0-.165-.396v-.001Zm-1.652 5.69h-.932v-.918h.932v.918Zm.877-2.554c-.111.158-.33.35-.655.578a.59.59 0 0 0-.212.256c-.041.1-.064.24-.068.42h-.798c.006-.215.013-.359.022-.433.009-.074.029-.154.06-.24a.83.83 0 0 1 .152-.257c.062-.07.189-.182.38-.336.142-.113.238-.211.289-.295a.572.572 0 0 0 .076-.301.452.452 0 0 0-.142-.348.526.526 0 0 0-.372-.131c-.402 0-.612.245-.632.736h-.87c.019-.38.11-.683.274-.909.271-.374.684-.56 1.24-.56.438 0 .785.117 1.043.353.253.23.38.521.38.874 0 .237-.056.435-.167.593Z" fill="#fff"/></g><defs><clipPath id="a"><path fill="#fff" d="M0 0h30v30H0z"/></clipPath></defs></svg>
